X:181
T: Ech sin eso' al, ech sin eso' kal (3-19), S. 50f
N: K1156
O: Luxemburg
S: KINTZELE, Guillaume: An der Ucht, Bd. 3 Luxemburg 1928]
R: Scherz-, Spottlied ber die Liebe]
M: 3/8
L: 1/16
K: C
 | c2c2c2 | c2B2A2 | G2G2G2 | E4
G2 | A4A2 | B2A2B2 | c4
c2 | f4f2 | f2e2d2 | e3ee2 | e2d2
c2 | d4d2 | d2c2B2 | c2B2A2 | G4
G2 | f3ff2 | f2e2d2 | e3ee2 | e2d2
c2 | d3dd2 | f2d2B2 | d3cB2 | c4z2

@@@ Tune index: 8235
